src/img/icons/update-manager.svg

<svg xmlns="http://www.w3.org/2000/svg" xmlns:xlink="http://www.w3.org/1999/xlink" width="384pt" height="384pt" version="1.1" viewBox="0 0 384 384"> <defs> <filter id="alpha" width="100%" height="100%" x="0%" y="0%" filterUnits="objectBoundingBox"> <feColorMatrix in="SourceGraphic" type="matrix" values="0 0 0 0 1 0 0 0 0 1 0 0 0 0 1 0 0 0 1 0"/> </filter> <mask id="mask0"> <g filter="url(#alpha)"> <rect width="384" height="384" x="0" y="0" style="fill:rgb(0%,0%,0%);fill-opacity:0.301961"/> </g> </mask> <clipPath id="clip1"> <rect width="384" height="384" x="0" y="0"/> </clipPath> <g id="surface5" clip-path="url(#clip1)"> <path style="fill:rgb(0%,0%,0%)" d="M 192 105.75 C 140.0625 105.75 98.25 147.5625 98.25 199.5 C 98.25 251.4375 140.0625 293.25 192 293.25 C 243.9375 293.25 285.75 251.4375 285.75 199.5 C 285.75 147.5625 243.9375 105.75 192 105.75 Z M 192 124.5 C 233.550781 124.5 267 157.949219 267 199.5 C 267 241.050781 233.550781 274.5 192 274.5 C 150.449219 274.5 117 241.050781 117 199.5 C 117 157.949219 150.449219 124.5 192 124.5 Z M 192 155.75 L 148.25 199.5 L 173.25 199.5 L 173.25 243.25 L 210.75 243.25 L 210.75 199.5 L 235.75 199.5 Z M 192 155.75"/> </g> </defs> <g> <path style="fill:rgb(100.000%,100.000%,100.000%)" d="M 192 23.25 C 285.199219 23.25 360.75 98.800781 360.75 192 C 360.75 285.199219 285.199219 360.75 192 360.75 C 98.800781 360.75 23.25 285.199219 23.25 192 C 23.25 98.800781 98.800781 23.25 192 23.25 Z M 192 23.25"/> <path style="fill:rgb(12.549%,65.882%,68.627%)" d="M 192 42 C 274.84375 42 342 109.15625 342 192 C 342 274.84375 274.84375 342 192 342 C 109.15625 342 42 274.84375 42 192 C 42 109.15625 109.15625 42 192 42 Z M 192 42"/> <use mask="url(#mask0)" xlink:href="#surface5"/> <path style="fill:rgb(6.666%,17.647%,36.078%)" d="M 192 98.25 C 140.0625 98.25 98.25 140.0625 98.25 192 C 98.25 243.9375 140.0625 285.75 192 285.75 C 243.9375 285.75 285.75 243.9375 285.75 192 C 285.75 140.0625 243.9375 98.25 192 98.25 Z M 192 117 C 233.550781 117 267 150.449219 267 192 C 267 233.550781 233.550781 267 192 267 C 150.449219 267 117 233.550781 117 192 C 117 150.449219 150.449219 117 192 117 Z M 192 148.25 L 148.25 192 L 173.25 192 L 173.25 235.75 L 210.75 235.75 L 210.75 192 L 235.75 192 Z M 192 148.25"/> </g> </svg>

<svg width="512" height="512" version="1.1" viewBox="0 0 384 384" xmlns="http://www.w3.org/2000/svg"><path d="m192 30.75c93.199 0 168.75 75.551 168.75 168.75s-75.551 168.75-168.75 168.75-168.75-75.551-168.75-168.75 75.551-168.75 168.75-168.75z" opacity=".3"/><path d="m192 23.25c93.199 0 168.75 75.551 168.75 168.75s-75.551 168.75-168.75 168.75-168.75-75.551-168.75-168.75 75.551-168.75 168.75-168.75z" fill="#fff"/><path d="m192 42c82.844 0 150 67.156 150 150s-67.156 150-150 150-150-67.156-150-150 67.156-150 150-150z" fill="#1ea6ae"/><path d="m192 105.75c-51.938 0-93.75 41.812-93.75 93.75s41.813 93.75 93.75 93.75 93.75-41.812 93.75-93.75-41.812-93.75-93.75-93.75zm0 18.75c41.551 0 75 33.449 75 75s-33.449 75-75 75-75-33.449-75-75 33.449-75 75-75zm0 31.25-43.75 43.75h25v43.75h37.5v-43.75h25z" opacity=".3"/><path d="m192 98.25c-51.938 0-93.75 41.812-93.75 93.75s41.812 93.75 93.75 93.75 93.75-41.812 93.75-93.75-41.812-93.75-93.75-93.75zm0 18.75c41.551 0 75 33.449 75 75s-33.449 75-75 75-75-33.449-75-75 33.449-75 75-75zm0 31.25-43.75 43.75h25v43.75h37.5v-43.75h25z" fill="#0f2b5c"/><path transform="scale(.75)" d="m256 31c-124.27 0-225 100.73-225 225 0 1.6719 0.028171 3.3368 0.064453 5 2.6604-121.96 102.34-220 224.94-220 122.59 0 222.28 98.045 224.94 220 0.03628-1.6632 0.06445-3.3281 0.06445-5 0-124.27-100.73-225-225-225z" opacity=".1" stroke-width="1.3333"/></svg>
